X:1
T:The Other Side
T:The Other Side
T:Solomon W. Straub
T:June Glenwood, 1872
T:Public Domain Courtesy of the Cyber Hymnal™
T:Public Domain Courtesy of the Cyber Hymnal™
T:Public Domain Courtesy of the Cyber Hymnal™
C:Solomon W. Straub
Z:Public Domain
Z:Courtesy of the Cyber Hymnal™
%%score 1 ( 2 3 ) 4
L:1/8
Q:1/4=88
M:3/4
K:Bb
V:1 treble 
V:2 treble 
V:3 treble 
V:4 bass 
V:1
 F>F | F3 F GB | G F3 F>F | F3 A GF | C3 z F>F | F3 F GB | G F3 B>B | A3 c B=E | F2 z (A A>)B | %9
w: 1.~Sit- ting,|sad- ly think- ing,|dream- ing, In the|twi- light’s deep- ening|gloom, While the|fire throws dusk- y|sha- dows, All a-|round the si- lent|room. Bright- * ly|
w: 2.~Now the|shades of night are|ga- thering, And the|sun has sunk a-|way, And the|bright- hued clouds of|sun- set, Are all|fad- ing in- to|gray. Night * is|
w: 3.~Lit- tle|Min- nie stood be-|side me, And her|ear- nest eyes met|mine: “Aunt- ie,|you have of- ten|told me We are|ruled by power di-|vine; We~know * He|
 c3 d cA | B d3 f>d | c3 B AG | (A2 !fermata!G2) F>F | F3 F GB | G2 F2 F>F | G3 e dc | B3 z || %17
w: rose the sun at|morn- ing, Hope’s bright|arch was in the|air; * Earth with|pear- ly dew was|gem- mèd, All the|world seemed bright and|fair.|
w: com- ing, cold and|cheer- less, Van- ished|quite each sun- ny|ray; * Is the|fu- ture dark and|drear- y As those|clouds of som- ber|gray?|
w: made the burn- ing|s- un, As well|as the gloom- y|night; * Tho’ the|clouds to us look|da- rk, On the|o- ther side they’re|bright.”|
"^Refrain" C>D | E3 F EC | D F3 D>F | E3 D CC | (C2 !fermata!A,2) B,>B, | B,3 B, B,B, | %23
w: Once my|life was bright as|morn- ing, Love and|hope their sun- light|gave; * Now my|hap- pi- ness is|
w: (Last verse)||||||
w: Then I|kissed her lips of|crim- son, And the|sad- ness left my|heart; * In- fant|lips had taught the|
 B, B,3 B,>B, | B,3 B, B,F, | !fermata!F,4 |] %26
w: bur- ied In a|loved one’s for- eign|grave.|
w: |||
w: les- son World- ly|love could ne’er im-|part.|
V:2
 z2 | z ([B,DF][B,DF][B,DF]) z [B,EG] | z ([B,DF][B,DF][B,DF]) z [B,DF] | %3
 z ([A,CF][A,CF][A,CF]) z [A,CF] | z ([F,B,D][F,B,D][F,B,D]) z2 | z ([B,DF][B,DF][B,DF]) z [B,EG] | %6
 z ([B,DF][B,DF][B,DF]) z [B,DF] | z ([A,CF][A,CF][A,CF]) z [G,C=E] | z ([A,CF][A,CF][A,CF]) z2 | %9
 z ([A,CF]/[A,CF]/[A,CF][A,CF]) z [A,CF] | z ([B,DF]/[B,DF]/[B,DF][B,DF]) z [B,DF] | %11
 z ([A,CF]/[A,CF]/[A,CF][A,CF]) z [B,C=E] | z ([A,CF] !fermata![A,CEF]2) z2 | %13
 z ([B,DF][B,DF][B,DF]) z [B,EG] | z ([B,DF][B,DF][B,DF]) z [B,DF] | %15
 z ([B,EG][B,EG][B,EG]) z [A,CEF] | z ([B,DF][B,DF][B,DF]) || [FA]>[FB] | [Fc]3 [Fd] [Fc][FA] | %19
 [FB] [Bd]3 [df]>[Bd] | [Ac]3 [EB] [FA][=EG] | ([FA]2 !fermata![EG]2) [DF]>[DF] | %22
 [DF]3 [DF] [EG][GB] | [EG] [DF]3 F>F | [EG]3 [Ge] [Fd][Ec] | !fermata![DB]4 |] %26
V:3
 x2 | x6 | x6 | x6 | x6 | x6 | x6 | x6 | x6 | x6 | x6 | x6 | x6 | x6 | x6 | x6 | x4 || x2 | x6 | %19
 x6 | x6 | x6 | x6 | x4 F>F | x6 | x4 |] %26
V:4
 z2 | [B,,,B,,]3 z [B,,,B,,] z | [B,,,B,,]3 z [B,,,B,,] z | [F,,F,]3 z [F,,F,] z | [B,,,B,,]3 z3 | %5
 [B,,,B,,]3 z2 [B,,,B,,] | [B,,,B,,]3 z [B,,,B,,] z | [C,,C,]3 z [C,,C,] z | [F,,F,]3 z3 | %9
 [F,,F,]3 z [F,,F,] z | [B,,,B,,]3 z [B,,,B,,] z | [C,,E,]3 z [C,,C,] z | !fermata![F,,,F,,]3 z3 | %13
 [B,,,B,,]3 z [B,,,B,,] z | [B,,,B,,]3 z [B,,,B,,] z | [E,,E,]3 z [E,,E,] z | [B,,,B,,]3 z || %17
 F,>F, | F,3 F, F,F, | B, B,3 B,>B, | F,3 B,, C,C, | !fermata!F,4 B,,>B,, | B,,3 B,, B,,B,, | %23
 B,, B,,3 D,>D, | E,3 E, F,[F,,F,] | !fermata!B,,4 |] %26

